images/icons/cart.svg

<svg width="16" height="14" viewBox="0 0 16 14" fill="none" xmlns="http://www.w3.org/2000/svg"><g clip-path="url(#a)"><path d="m15.3 5-3.5.2L8.6.3C8.5.1 8.2 0 8 0c-.2 0-.5.1-.6.3L4.2 5.2H.7c-.4 0-.7.3-.7.7v.2l1.9 6.8c.2.7.7 1.1 1.4 1.1h9.4c.7 0 1.2-.4 1.4-1.1L16 6v-.2c0-.4-.3-.8-.7-.8ZM8 1.9l2.2 3.2H5.9L8 1.9Z" fill="#000"/></g><defs><clipPath id="a"><path fill="#fff" d="M0 0h16v14H0z"/></clipPath></defs></svg>

<svg width="16" height="14" viewBox="0 0 16 14" fill="none" xmlns="http://www.w3.org/2000/svg">
<g clip-path="url(#clip0_4_585)">
<path d="M15.3 5L11.8 5.2L8.6 0.3C8.5 0.1 8.2 0 8 0C7.8 0 7.5 0.1 7.4 0.3L4.2 5.2H0.7C0.3 5.2 0 5.5 0 5.9C0 6 0 6 0 6.1L1.9 12.9C2.1 13.6 2.6 14 3.3 14H12.7C13.4 14 13.9 13.6 14.1 12.9L16 6C16 5.9 16 5.9 16 5.8C16 5.4 15.7 5 15.3 5ZM8 1.9L10.2 5.1H5.9L8 1.9Z" fill="black"/>
</g>
<defs>
<clipPath id="clip0_4_585">
<rect width="16" height="14" fill="white"/>
</clipPath>
</defs>
</svg>
